;FLAVOR:Marlin
;TIME:812
;Filament used: 0.460619m
;Layer height: 0.2
;MINX:86.5
;MINY:86.5
;MINZ:0.2
;MAXX:133.5
;MAXY:133.5
;MAXZ:4
;Generated with Creality Slicer 4.8.2-252
M140 S60
M105
M190 S60
M104 S200
M105
M109 S200
M82 ;absolute extrusion mode

G28 ;Home

G92 E0 ;Reset Extruder
G1 Z2.0 F3000 ;Move Z Axis up
G1 X10.1 Y20 Z0.28 F5000.0 ;Move to start position
G1 X10.1 Y200.0 Z0.28 F1500.0 E15 ;Draw the first line
G1 X10.4 Y200.0 Z0.28 F5000.0 ;Move to side a little
G1 X10.4 Y20 Z0.28 F1500.0 E30 ;Draw the second line
G92 E0 ;Reset Extruder
G1 Z2.0 F3000 ;Move Z Axis up

G92 E0
G92 E0
G1 F2400 E-0.8
;LAYER_COUNT:20
;LAYER:0
M107
M204 S2000
G0 F7500 X90.051 Y91.393 Z0.2
M204 S500
;TYPE:SKIRT
G1 F2400 E0
G1 F1500 X91.371 Y90.074 E0.06207
G1 X91.858 Y89.603 E0.0846
G1 X92.559 Y88.98 E0.11579
G1 X93.311 Y88.42 E0.14698
G1 X94.108 Y87.925 E0.17818
G1 X94.944 Y87.5 E0.20937
G1 X95.813 Y87.148 E0.24056
G1 X96.709 Y86.871 E0.27175
G1 X97.626 Y86.672 E0.30296
G1 X98.556 Y86.551 E0.33415
G1 X99.134 Y86.516 E0.35341
G1 X99.519 Y86.506 E0.36622
G1 X100.062 Y86.5 E0.38428
G1 X119.793 Y86.5 E1.04054
G1 X120.652 Y86.511 E1.06911
G1 X121.588 Y86.564 E1.10029
G1 X122.516 Y86.697 E1.13147
G1 X123.43 Y86.909 E1.16268
G1 X124.323 Y87.197 E1.19389
G1 X125.187 Y87.561 E1.22507
G1 X126.018 Y87.997 E1.25628
G1 X126.808 Y88.502 E1.28747
G1 X127.552 Y89.072 E1.31864
G1 X127.976 Y89.445 E1.33742
G1 X128.128 Y89.586 E1.34432
G1 X128.329 Y89.777 E1.35354
G1 X128.586 Y90.03 E1.36554
G1 X129.913 Y91.358 E1.42798
G1 X130.371 Y91.83 E1.44985
G1 X130.995 Y92.53 E1.48104
G1 X131.557 Y93.281 E1.51224
G1 X132.053 Y94.077 E1.54344
G1 X132.479 Y94.912 E1.57461
G1 X132.833 Y95.781 E1.60582
G1 X133.111 Y96.677 E1.63702
G1 X133.312 Y97.593 E1.66822
G1 X133.411 Y98.283 E1.6914
G1 X133.429 Y98.446 E1.69685
G1 X133.494 Y99.519 E1.73261
G1 X133.5 Y100.062 E1.75067
G1 X133.499 Y119.95 E2.41215
G1 X133.489 Y120.652 E2.4355
G1 X133.436 Y121.588 E2.46668
G1 X133.303 Y122.516 E2.49786
G1 X133.091 Y123.43 E2.52907
G1 X132.803 Y124.323 E2.56027
G1 X132.439 Y125.187 E2.59146
G1 X132.003 Y126.018 E2.62267
G1 X131.498 Y126.808 E2.65386
G1 X130.928 Y127.552 E2.68503
G1 X130.555 Y127.976 E2.70381
G1 X130.414 Y128.128 E2.71071
G1 X130.212 Y128.34 E2.72045
G1 X130.031 Y128.525 E2.72905
G1 X128.646 Y129.908 E2.79415
G1 X128.152 Y130.387 E2.81704
G1 X127.452 Y131.011 E2.84823
G1 X126.701 Y131.572 E2.87941
G1 X125.904 Y132.068 E2.91063
G1 X125.069 Y132.494 E2.94181
G1 X124.2 Y132.847 E2.973
G1 X123.304 Y133.125 E3.00421
G1 X122.388 Y133.326 E3.0354
G1 X121.458 Y133.448 E3.0666
G1 X120.866 Y133.484 E3.08632
G1 X120.481 Y133.494 E3.09913
G1 X119.938 Y133.5 E3.11719
G1 X100.05 Y133.499 E3.77867
G1 X99.348 Y133.489 E3.80202
G1 X98.412 Y133.436 E3.8332
G1 X97.484 Y133.303 E3.86438
G1 X96.57 Y133.091 E3.89559
G1 X95.677 Y132.803 E3.9268
G1 X94.813 Y132.439 E3.95798
G1 X93.982 Y132.003 E3.98919
G1 X93.192 Y131.498 E4.02038
G1 X92.448 Y130.928 E4.05155
G1 X92.024 Y130.555 E4.07033
G1 X91.872 Y130.414 E4.07723
G1 X91.656 Y130.207 E4.08718
G1 X91.383 Y129.939 E4.0999
G1 X90.074 Y128.629 E4.1615
G1 X89.603 Y128.142 E4.18403
G1 X88.98 Y127.441 E4.21523
G1 X88.42 Y126.689 E4.24641
G1 X87.925 Y125.892 E4.27762
G1 X87.5 Y125.056 E4.30881
G1 X87.148 Y124.187 E4.33999
G1 X86.871 Y123.291 E4.37118
G1 X86.672 Y122.374 E4.40239
G1 X86.551 Y121.444 E4.43359
G1 X86.516 Y120.866 E4.45285
G1 X86.506 Y120.481 E4.46566
G1 X86.5 Y119.938 E4.48372
G1 X86.501 Y100.05 E5.14519
G1 X86.511 Y99.348 E5.16855
G1 X86.564 Y98.412 E5.19973
G1 X86.697 Y97.484 E5.23091
G1 X86.909 Y96.57 E5.26211
G1 X87.197 Y95.677 E5.29332
G1 X87.561 Y94.813 E5.32451
G1 X87.997 Y93.982 E5.35572
G1 X88.502 Y93.192 E5.3869
G1 X89.072 Y92.448 E5.41808
G1 X89.445 Y92.024 E5.43686
G1 X89.586 Y91.872 E5.44375
G1 X89.788 Y91.66 E5.45349
G1 X90.051 Y91.393 E5.46596
M204 S2000
G0 F7500 X90.334 Y91.676
M204 S500
G1 F1500 X91.649 Y90.362 E5.52779
G1 X92.136 Y89.891 E5.55032
G1 X92.825 Y89.28 E5.58095
G1 X93.564 Y88.731 E5.61157
G1 X94.348 Y88.249 E5.64218
G1 X95.171 Y87.836 E5.67281
G1 X96.027 Y87.497 E5.70343
G1 X96.909 Y87.233 E5.73405
G1 X97.811 Y87.046 E5.76469
G1 X99.147 Y86.916 E5.80933
G1 X99.523 Y86.906 E5.82184
G1 X100.062 Y86.9 E5.83977
G1 X119.793 Y86.9 E6.49603
G1 X120.646 Y86.911 E6.5244
G1 X121.565 Y86.964 E6.55502
G1 X122.476 Y87.097 E6.58564
G1 X123.372 Y87.308 E6.61626
G1 X124.247 Y87.596 E6.6469
G1 X125.093 Y87.959 E6.67751
G1 X125.904 Y88.394 E6.70812
G1 X126.675 Y88.898 E6.73876
G1 X127.704 Y89.739 E6.78296
G1 X127.856 Y89.88 E6.78986
G1 X128.049 Y90.064 E6.79873
G1 X128.303 Y90.313 E6.81056
G1 X129.626 Y91.636 E6.87279
G1 X130.084 Y92.108 E6.89466
G1 X130.696 Y92.796 E6.92529
G1 X131.246 Y93.535 E6.95593
G1 X131.73 Y94.318 E6.98654
G1 X132.144 Y95.14 E7.01715
G1 X132.484 Y95.996 E7.04779
G1 X132.75 Y96.877 E7.0784
G1 X132.938 Y97.778 E7.10901
G1 X133.013 Y98.327 E7.12744
G1 X133.031 Y98.49 E7.13289
G1 X133.094 Y99.523 E7.16732
G1 X133.1 Y100.062 E7.18524
G1 X133.099 Y119.944 E7.84652
G1 X133.089 Y120.646 E7.86987
G1 X133.036 Y121.565 E7.90049
G1 X132.903 Y122.476 E7.93111
G1 X132.692 Y123.372 E7.96173
G1 X132.404 Y124.247 E7.99237
G1 X132.041 Y125.093 E8.02298
G1 X131.606 Y125.904 E8.05359
G1 X131.102 Y126.675 E8.08423
G1 X130.261 Y127.704 E8.12843
G1 X130.12 Y127.856 E8.13533
G1 X129.926 Y128.06 E8.14469
G1 X129.745 Y128.245 E8.1533
G1 X128.368 Y129.621 E8.21804
G1 X127.874 Y130.1 E8.24093
G1 X127.186 Y130.712 E8.27156
G1 X126.447 Y131.261 E8.30218
G1 X125.664 Y131.745 E8.33279
G1 X124.841 Y132.158 E8.36342
G1 X123.986 Y132.499 E8.39404
G1 X123.104 Y132.764 E8.42467
G1 X122.203 Y132.952 E8.45528
G1 X120.853 Y133.084 E8.50039
G1 X120.477 Y133.094 E8.5129
G1 X119.938 Y133.1 E8.53083
G1 X100.056 Y133.099 E9.19211
G1 X99.354 Y133.089 E9.21546
G1 X98.435 Y133.036 E9.24608
G1 X97.524 Y132.903 E9.2767
G1 X96.628 Y132.692 E9.30732
G1 X95.753 Y132.404 E9.33795
G1 X94.907 Y132.041 E9.36857
G1 X94.096 Y131.606 E9.39918
G1 X93.325 Y131.102 E9.42982
G1 X92.296 Y130.261 E9.47402
G1 X92.144 Y130.12 E9.48092
G1 X91.936 Y129.922 E9.49047
G1 X91.666 Y129.657 E9.50305
G1 X90.489 Y128.481 E9.55839
G1 X89.891 Y127.864 E9.58697
G1 X89.28 Y127.175 E9.6176
G1 X88.731 Y126.436 E9.64822
G1 X88.249 Y125.652 E9.67883
G1 X87.836 Y124.829 E9.70945
G1 X87.497 Y123.973 E9.74007
G1 X87.233 Y123.091 E9.7707
G1 X87.046 Y122.189 E9.80133
G1 X86.916 Y120.853 E9.84598
G1 X86.906 Y120.477 E9.85849
G1 X86.9 Y119.938 E9.87642
G1 X86.901 Y100.056 E10.5377
G1 X86.911 Y99.354 E10.56105
G1 X86.964 Y98.435 E10.59166
G1 X87.097 Y97.524 E10.62229
G1 X87.308 Y96.628 E10.6529
G1 X87.596 Y95.753 E10.68354
G1 X87.959 Y94.907 E10.71416
G1 X88.394 Y94.096 E10.74477
G1 X88.898 Y93.325 E10.77541
G1 X89.739 Y92.296 E10.81961
G1 X89.88 Y92.144 E10.8265
G1 X90.074 Y91.94 E10.83587
G1 X90.334 Y91.676 E10.84819
M204 S2000
G0 F7500 X90.616 Y91.959
M204 S500
G1 F1500 X91.927 Y90.649 E10.90983
G1 X92.414 Y90.178 E10.93237
G1 X93.09 Y89.58 E10.96238
G1 X93.817 Y89.043 E10.99245
G1 X94.588 Y88.573 E11.02248
G1 X95.398 Y88.173 E11.05252
G1 X96.24 Y87.847 E11.08256
G1 X97.107 Y87.596 E11.11258
G1 X97.994 Y87.423 E11.14263
G1 X99.161 Y87.316 E11.18161
G1 X99.528 Y87.306 E11.19382
G1 X100.062 Y87.3 E11.21158
G1 X119.793 Y87.3 E11.86784
G1 X120.64 Y87.311 E11.89601
G1 X121.542 Y87.364 E11.92607
G1 X122.435 Y87.496 E11.95609
G1 X123.313 Y87.707 E11.98612
G1 X124.169 Y87.995 E12.01616
G1 X124.997 Y88.357 E12.04622
G1 X125.789 Y88.791 E12.07626
G1 X126.539 Y89.294 E12.10629
G1 X127.432 Y90.032 E12.14482
G1 X127.584 Y90.173 E12.15172
G1 X127.77 Y90.35 E12.16026
G1 X128.021 Y90.596 E12.17195
G1 X129.339 Y91.915 E12.23397
G1 X129.797 Y92.387 E12.25584
G1 X130.397 Y93.062 E12.28588
G1 X130.934 Y93.788 E12.31591
G1 X131.406 Y94.558 E12.34595
G1 X131.807 Y95.367 E12.37598
G1 X132.135 Y96.209 E12.40604
G1 X132.387 Y97.076 E12.43607
G1 X132.615 Y98.37 E12.47977
G1 X132.633 Y98.533 E12.48523
G1 X132.694 Y99.528 E12.51838
G1 X132.7 Y100.062 E12.53614
G1 X132.699 Y119.938 E13.19722
G1 X132.689 Y120.64 E13.22057
G1 X132.636 Y121.542 E13.25063
G1 X132.504 Y122.435 E13.28065
G1 X132.293 Y123.313 E13.31068
G1 X132.005 Y124.169 E13.34072
G1 X131.643 Y124.997 E13.37078
G1 X131.209 Y125.789 E13.40082
G1 X130.706 Y126.539 E13.43085
G1 X129.968 Y127.432 E13.46938
G1 X129.827 Y127.584 E13.47628
G1 X129.64 Y127.78 E13.48529
G1 X129.459 Y127.965 E13.4939
G1 X128.089 Y129.334 E13.55831
G1 X127.595 Y129.813 E13.5812
G1 X126.92 Y130.412 E13.61122
G1 X126.194 Y130.949 E13.64125
G1 X125.423 Y131.42 E13.6713
G1 X124.614 Y131.821 E13.70133
G1 X123.773 Y132.149 E13.73136
G1 X122.905 Y132.401 E13.76142
G1 X122.019 Y132.575 E13.79145
G1 X120.839 Y132.684 E13.83086
G1 X120.472 Y132.694 E13.84307
G1 X119.938 Y132.7 E13.86084
G1 X100.062 Y132.699 E14.52192
G1 X99.36 Y132.689 E14.54527
G1 X98.458 Y132.636 E14.57532
G1 X97.565 Y132.504 E14.60534
G1 X96.687 Y132.293 E14.63538
G1 X95.831 Y132.005 E14.66542
G1 X95.003 Y131.643 E14.69547
G1 X94.211 Y131.209 E14.72551
G1 X93.461 Y130.706 E14.75555
G1 X92.568 Y129.968 E14.79408
G1 X92.416 Y129.827 E14.80097
G1 X92.216 Y129.636 E14.81017
G1 X91.949 Y129.374 E14.82261
G1 X90.649 Y128.073 E14.88378
G1 X90.178 Y127.586 E14.90632
G1 X89.58 Y126.91 E14.93634
G1 X89.043 Y126.183 E14.9664
G1 X88.573 Y125.412 E14.99643
G1 X88.173 Y124.602 E15.02648
G1 X87.847 Y123.76 E15.05651
G1 X87.596 Y122.893 E15.08653
G1 X87.423 Y122.006 E15.11659
G1 X87.316 Y120.839 E15.15556
G1 X87.306 Y120.472 E15.16777
G1 X87.3 Y119.938 E15.18554
G1 X87.301 Y100.062 E15.84661
G1 X87.311 Y99.36 E15.86997
G1 X87.364 Y98.458 E15.90002
G1 X87.496 Y97.565 E15.93004
G1 X87.707 Y96.687 E15.96008
G1 X87.995 Y95.831 E15.99012
G1 X88.357 Y95.003 E16.02017
G1 X88.791 Y94.211 E16.05021
G1 X89.294 Y93.461 E16.08024
G1 X90.032 Y92.568 E16.11878
G1 X90.173 Y92.416 E16.12567
G1 X90.36 Y92.22 E16.13468
G1 X90.616 Y91.959 E16.14684
M204 S2000
G1 F2400 E15.34684
;MESH:hatch.stl
G0 F7500 X102.943 Y106.597
G0 X101.625 Y105.98
G0 X101.104 Y109.122
G0 X101.072 Y110.457
G0 X101.24 Y111.782
G0 X101.604 Y113.066
G0 X102.153 Y114.285
G0 X102.881 Y115.406
G0 X103.766 Y116.406
G0 X104.791 Y117.264
G0 X105.93 Y117.959
G0 X107.161 Y118.477
G0 X107.894 Y118.662
G0 X110.212 Y119.098
M204 S500
;TYPE:WALL-INNER
G1 F2400 E16.14684
G1 F1500 X110.688 Y119.074 E16.16269
G1 X111.139 Y119.028 E16.17777
G1 X111.587 Y118.961 E16.19284
G1 X112.033 Y118.871 E16.20797
G1 X112.472 Y118.757 E16.22306
G1 X112.905 Y118.624 E16.23812
G1 X113.33 Y118.468 E16.25318
G1 X113.747 Y118.293 E16.26822
G1 X114.158 Y118.096 E16.28338
G1 X114.556 Y117.877 E16.29849
G1 X114.942 Y117.641 E16.31354
G1 X115.317 Y117.385 E16.32864
G1 X115.678 Y117.112 E16.34369
G1 X116.024 Y116.82 E16.35875
G1 X116.357 Y116.511 E16.37386
G1 X116.674 Y116.186 E16.38896
G1 X116.973 Y115.847 E16.404
G1 X117.256 Y115.492 E16.4191
G1 X117.521 Y115.124 E16.43418
G1 X117.766 Y114.743 E16.44924
G1 X117.993 Y114.35 E16.46434
G1 X118.2 Y113.947 E16.47941
G1 X118.387 Y113.533 E16.49452
G1 X118.551 Y113.11 E16.50961
G1 X118.695 Y112.681 E16.52466
G1 X118.819 Y112.244 E16.53977
G1 X118.919 Y111.802 E16.55484
G1 X118.999 Y111.356 E16.56991
G1 X119.055 Y110.906 E16.58499
G1 X119.089 Y110.454 E16.60007
G1 X119.1 Y109.983 E16.61574
G1 X119.09 Y109.547 E16.63024
G1 X119.053 Y109.078 E16.64589
G1 X119 Y108.644 E16.66043
G1 X118.916 Y108.18 E16.67612
G1 X118.815 Y107.737 E16.69123
G1 X118.69 Y107.303 E16.70625
G1 X118.552 Y106.889 E16.72076
G1 X118.379 Y106.45 E16.73646
G1 X118.191 Y106.037 E16.75155
G1 X117.984 Y105.633 E16.76665
G1 X117.757 Y105.241 E16.78172
G1 X117.509 Y104.859 E16.79686
G1 X117.243 Y104.493 E16.81191
G1 X116.96 Y104.138 E16.82701
G1 X116.659 Y103.799 E16.84209
G1 X116.343 Y103.475 E16.85714
G1 X116.009 Y103.167 E16.87225
G1 X115.661 Y102.875 E16.88736
G1 X115.299 Y102.603 E16.90242
G1 X114.923 Y102.347 E16.91755
G1 X114.537 Y102.112 E16.93258
G1 X114.139 Y101.896 E16.94765
G1 X113.729 Y101.698 E16.96279
G1 X113.308 Y101.524 E16.97794
G1 X112.883 Y101.37 E16.99298
G1 X112.45 Y101.237 E17.00804
G1 X112.01 Y101.125 E17.02314
G1 X111.565 Y101.036 E17.03824
G1 X111.117 Y100.969 E17.0533
G1 X110.665 Y100.924 E17.06841
G1 X110.212 Y100.903 E17.08349
G1 X109.758 Y100.903 E17.09859
G1 X109.305 Y100.927 E17.11368
G1 X108.855 Y100.973 E17.12873
G1 X108.406 Y101.04 E17.14383
G1 X107.962 Y101.131 E17.1589
G1 X107.539 Y101.238 E17.17341
G1 X107.088 Y101.379 E17.18913
G1 X106.664 Y101.535 E17.20416
G1 X106.245 Y101.71 E17.21926
G1 X105.837 Y101.908 E17.23434
G1 X105.454 Y102.116 E17.24884
G1 X105.05 Y102.363 E17.26459
G1 X104.677 Y102.619 E17.27963
G1 X104.315 Y102.893 E17.29473
G1 X103.969 Y103.186 E17.30981
G1 X103.636 Y103.495 E17.32492
G1 X103.32 Y103.82 E17.34
G1 X103.021 Y104.16 E17.35506
G1 X102.738 Y104.516 E17.37019
G1 X102.474 Y104.885 E17.38528
G1 X102.228 Y105.266 E17.40036
G1 X102.002 Y105.66 E17.41547
G1 X101.796 Y106.063 E17.43052
G1 X101.61 Y106.477 E17.44562
G1 X101.445 Y106.9 E17.46072
G1 X101.301 Y107.33 E17.4758
G1 X101.179 Y107.767 E17.49089
G1 X101.079 Y108.209 E17.50596
G1 X101 Y108.654 E17.521
G1 X100.944 Y109.106 E17.53614
G1 X100.911 Y109.558 E17.55122
G1 X100.9 Y110.011 E17.56629
G1 X100.911 Y110.465 E17.58139
G1 X100.946 Y110.917 E17.59647
G1 X100.999 Y111.35 E17.61098
G1 X101.083 Y111.814 E17.62666
G1 X101.184 Y112.256 E17.64174
G1 X101.308 Y112.693 E17.65685
G1 X101.453 Y113.122 E17.67191
G1 X101.618 Y113.545 E17.68702
G1 X101.806 Y113.958 E17.70211
G1 X102.013 Y114.362 E17.71721
G1 X102.24 Y114.754 E17.73227
G1 X102.488 Y115.135 E17.74739
G1 X102.752 Y115.503 E17.76246
G1 X103.036 Y115.858 E17.77758
G1 X103.336 Y116.196 E17.79261
G1 X103.653 Y116.522 E17.80773
G1 X103.986 Y116.829 E17.8228
G1 X104.334 Y117.122 E17.83793
G1 X104.697 Y117.394 E17.85301
G1 X105.071 Y117.649 E17.86807
G1 X105.458 Y117.885 E17.88315
G1 X105.856 Y118.102 E17.89822
G1 X106.266 Y118.299 E17.91335
G1 X106.684 Y118.474 E17.92842
G1 X107.11 Y118.629 E17.9435
G1 X107.544 Y118.762 E17.9586
G1 X107.984 Y118.874 E17.9737
G1 X108.428 Y118.963 E17.98876
G1 X108.877 Y119.031 E18.00387
G1 X109.329 Y119.075 E18.01897
G1 X109.788 Y119.098 E18.03426
G1 X110.212 Y119.098 E18.04836
M204 S2000
G0 F7500 X110.202 Y118.698
M204 S500
;TYPE:WALL-OUTER
G1 F1500 X110.658 Y118.675 E18.06354
G1 X111.089 Y118.631 E18.07795
G1 X111.518 Y118.567 E18.09238
G1 X111.943 Y118.481 E18.1068
G1 X112.363 Y118.372 E18.12124
G1 X112.777 Y118.245 E18.13564
G1 X113.184 Y118.096 E18.15005
G1 X113.583 Y117.928 E18.16445
G1 X113.975 Y117.74 E18.17891
G1 X114.355 Y117.531 E18.19334
G1 X114.725 Y117.305 E18.20776
G1 X115.083 Y117.06 E18.22219
G1 X115.428 Y116.799 E18.23657
G1 X115.759 Y116.52 E18.25097
G1 X116.078 Y116.225 E18.26542
G1 X116.38 Y115.914 E18.27984
G1 X116.666 Y115.59 E18.29422
G1 X116.937 Y115.25 E18.30868
G1 X117.19 Y114.899 E18.32307
G1 X117.425 Y114.534 E18.33751
G1 X117.642 Y114.159 E18.35192
G1 X117.839 Y113.773 E18.36633
G1 X118.018 Y113.378 E18.38075
G1 X118.175 Y112.974 E18.39517
G1 X118.313 Y112.563 E18.40959
G1 X118.431 Y112.145 E18.42404
G1 X118.527 Y111.723 E18.43843
G1 X118.603 Y111.296 E18.45286
G1 X118.657 Y110.866 E18.46727
G1 X118.689 Y110.434 E18.48168
G1 X118.7 Y109.983 E18.49668
G1 X118.69 Y109.567 E18.51052
G1 X118.655 Y109.118 E18.5255
G1 X118.604 Y108.704 E18.53938
G1 X118.524 Y108.26 E18.55438
G1 X118.427 Y107.837 E18.56882
G1 X118.308 Y107.421 E18.58321
G1 X118.176 Y107.026 E18.59706
G1 X118.011 Y106.606 E18.61207
G1 X117.831 Y106.211 E18.62651
G1 X117.633 Y105.825 E18.64093
G1 X117.416 Y105.45 E18.65534
G1 X117.179 Y105.086 E18.66979
G1 X116.925 Y104.735 E18.6842
G1 X116.654 Y104.396 E18.69864
G1 X116.366 Y104.072 E18.71305
G1 X116.064 Y103.762 E18.72745
G1 X115.745 Y103.467 E18.7419
G1 X115.412 Y103.188 E18.75635
G1 X115.066 Y102.928 E18.77074
G1 X114.707 Y102.684 E18.78518
G1 X114.337 Y102.459 E18.79959
G1 X113.956 Y102.252 E18.81401
G1 X113.565 Y102.063 E18.82845
G1 X113.163 Y101.897 E18.84292
G1 X112.756 Y101.749 E18.85732
G1 X112.342 Y101.622 E18.87172
G1 X111.921 Y101.515 E18.88617
G1 X111.496 Y101.43 E18.90059
G1 X111.068 Y101.366 E18.91498
G1 X110.636 Y101.323 E18.92942
